X:132
T:Milk(?) Pudding. HA.131
M:6/4
L:1/4
Q:3/4=80
S:Henry Atkinson’s original MS,Hartburn,N’umberland,1694.
O:England
A:Hartburn,Northumberland
H:1/4
Z:vmp.Chris Partington.Jan.2004
K:F
F/G/|A>GF f>ga|c2A F2(a/g/)|f2c f/e/f/g/a|cd/c/B/A/ G2F/G/|
AB/A/G/F/ f>ga|c2F Aag|f2c A/B/cA|F3 F2:|
|:c|c/A/c/d/c c/A/c/d/c|c/A/c/d/c/d/ c2c|\
f/e/f/g/f g/f/g/a/g|a/g/a/b/a/g/ f2c|
c/A/c/d/c c/A/c/d/c|cfg a2g|f2c A/B/c/B/A/G/|F3 F2:|
|:f|(cf)a (cf)a|(cf)a c2a/g/|fca/g/ fca/g/|(fc)A G2f|
(cf)a (cf)a |(cf)a (g3/2f/4g/4) “^sic”a>g|f2c A/B/c/B/A/G/|F3 F2:|

